src/home/img/moderation.svg

<svg height="80" viewBox="0 0 80 80" width="80" xmlns="http://www.w3.org/2000/svg" xmlns:xlink="http://www.w3.org/1999/xlink"><linearGradient id="a" x1="50%" x2="50%" y1="0%" y2="100%"><stop offset="0" stop-color="#3f6abc"/><stop offset="1" stop-color="#1851be"/></linearGradient><filter id="b" height="110.6%" width="110.6%" x="-5.3%" y="-5.3%"><feGaussianBlur in="SourceGraphic" stdDeviation="1.05"/></filter><radialGradient id="c" cx="57.407%" cy="0%" gradientTransform="matrix(0 1 -.69697 0 .574 -.574)" r="133.013%"><stop offset="0" stop-color="#fff"/><stop offset="1" stop-color="#aec3eb"/></radialGradient><mask id="d" fill="#fff"><path d="m.5 13.84c0-7.367 5.973-13.34 13.34-13.34h48.32c7.367 0 13.34 5.973 13.34 13.34v48.32c0 7.367-5.973 13.34-13.34 13.34h-48.32c-7.367 0-13.34-5.973-13.34-13.34z" fill="#fff" fill-rule="evenodd"/></mask><g fill="none" fill-rule="evenodd" transform="translate(2 2)"><path d="m.5 13.84c0-7.367 5.973-13.34 13.34-13.34h48.32c7.367 0 13.34 5.973 13.34 13.34v48.32c0 7.367-5.973 13.34-13.34 13.34h-48.32c-7.367 0-13.34-5.973-13.34-13.34z" mask="url(#d)"/><path d="m.5 13.84c0-7.367 5.973-13.34 13.34-13.34h48.32c7.367 0 13.34 5.973 13.34 13.34v48.32c0 7.367-5.973 13.34-13.34 13.34h-48.32c-7.367 0-13.34-5.973-13.34-13.34z"/><path d="m.5 13.84c0-7.367 5.973-13.34 13.34-13.34h48.32c7.367 0 13.34 5.973 13.34 13.34v48.32c0 7.367-5.973 13.34-13.34 13.34h-48.32c-7.367 0-13.34-5.973-13.34-13.34z"/><g fill-rule="nonzero"><path d="m.5 13.84c0-7.367 5.973-13.34 13.34-13.34h48.32c7.367 0 13.34 5.973 13.34 13.34v48.32c0 7.367-5.973 13.34-13.34 13.34h-48.32c-7.367 0-13.34-5.973-13.34-13.34z" fill="url(#a)" filter="url(#b)" stroke="#fff" stroke-opacity=".01" stroke-width="1.68"/><path d="m.5 13.84c0-7.367 5.973-13.34 13.34-13.34h48.32c7.367 0 13.34 5.973 13.34 13.34v48.32c0 7.367-5.973 13.34-13.34 13.34h-48.32c-7.367 0-13.34-5.973-13.34-13.34z" fill="url(#a)" stroke="#fff" stroke-opacity=".01" stroke-width="1.68"/><path d="m14.9 34.7142857c3.6454687 0 6.6-2.9417411 6.6-6.5714286s-2.9545313-6.5714285-6.6-6.5714285c-3.6454688 0-6.6 2.941741-6.6 6.5714285s2.9545312 6.5714286 6.6 6.5714286zm23.1 3.2857143c5.4676875 0 9.9-4.413125 9.9-9.8571429v-1.6428571h-19.8v1.6428571c0 5.4440179 4.4323125 9.8571429 9.9 9.8571429zm26.4 0h-6.6c-1.8139688 0-3.4546875.7300446-4.6478438 1.9087946 4.1528438 2.2650893 7.1011875 6.3691518 7.7477813 11.2340625h6.8000625c1.8222187 0 3.3-1.4713839 3.3-3.2857142v-3.2857143c0-3.6296875-2.9545313-6.5714286-6.6-6.5714286zm-41.5521563 1.9087946c-1.1931562-1.17875-2.833875-1.9087946-4.6478437-1.9087946h-6.6c-3.64546875 0-6.6 2.9417411-6.6 6.5714286v3.2857143c0 1.8143303 1.47778125 3.2857142 3.3 3.2857142h6.8000625c.6465937-4.8649107 3.5939062-8.9679464 7.7477812-11.2340625zm38.2521563-5.1945089c3.6454687 0 6.6-2.9417411 6.6-6.5714286s-2.9545313-6.5714285-6.6-6.5714285c-3.6454688 0-6.6 2.941741-6.6 6.5714285s2.9545312 6.5714286 6.6 6.5714286zm-15.18 6.5714286h-.8569688c-2.149125 1.0226786-4.5261562 1.6428571-7.0630312 1.6428571s-4.912875-.6201785-7.0630313-1.6428571h-.8569687c-6.5608125 0-11.88 5.2961607-11.88 11.8285714v2.9571429c0 2.7220089 2.2161562 4.9285714 4.95 4.9285714h29.7c2.7338437 0 4.95-2.2065625 4.95-4.9285714v-2.9571429c0-6.5324107-5.3191875-11.8285714-11.88-11.8285714zm1.98-26.2857143-4.95 2.4642857-4.95-2.4642857-4.95 2.4642857-4.95-2.4642857v8.2142857h19.8z" fill="url(#c)"/></g></g></svg>

<svg xmlns="http://www.w3.org/2000/svg" xmlns:xlink="http://www.w3.org/1999/xlink" width="80" height="80" viewBox="0 0 80 80">
  <defs>
    <path id="moderation-a" d="M0.5,13.84 C0.5,6.473 6.473,0.5 13.84,0.5 L62.16,0.5 C69.527,0.5 75.5,6.473 75.5,13.84 L75.5,62.16 C75.5,69.527 69.527,75.5 62.16,75.5 L13.84,75.5 C6.473,75.5 0.5,69.527 0.5,62.16 L0.5,13.84 Z"/>
    <linearGradient id="moderation-c" x1="50%" x2="50%" y1="0%" y2="100%">
      <stop offset="0%" stop-color="#3F6ABC"/>
      <stop offset="100%" stop-color="#1851BE"/>
    </linearGradient>
    <filter id="moderation-d" width="110.6%" height="110.6%" x="-5.3%" y="-5.3%" filterUnits="objectBoundingBox">
      <feGaussianBlur in="SourceGraphic" stdDeviation="1.05"/>
    </filter>
    <radialGradient id="moderation-e" cx="57.407%" cy="0%" r="133.013%" fx="57.407%" fy="0%" gradientTransform="matrix(0 1 -.69697 0 .574 -.574)">
      <stop offset="0%" stop-color="#FFF"/>
      <stop offset="100%" stop-color="#AEC3EB"/>
    </radialGradient>
  </defs>
  <g fill="none" fill-rule="evenodd" transform="translate(2 2)">
    <mask id="moderation-b" fill="#fff">
      <use xlink:href="#moderation-a"/>
    </mask>
    <path d="M0.5,13.84 C0.5,6.473 6.473,0.5 13.84,0.5 L62.16,0.5 C69.527,0.5 75.5,6.473 75.5,13.84 L75.5,62.16 C75.5,69.527 69.527,75.5 62.16,75.5 L13.84,75.5 C6.473,75.5 0.5,69.527 0.5,62.16 L0.5,13.84 Z" mask="url(#moderation-b)"/>
    <path d="M0.5,13.84 C0.5,6.473 6.473,0.5 13.84,0.5 L62.16,0.5 C69.527,0.5 75.5,6.473 75.5,13.84 L75.5,62.16 C75.5,69.527 69.527,75.5 62.16,75.5 L13.84,75.5 C6.473,75.5 0.5,69.527 0.5,62.16 L0.5,13.84 Z"/>
    <path d="M0.5,13.84 C0.5,6.473 6.473,0.5 13.84,0.5 L62.16,0.5 C69.527,0.5 75.5,6.473 75.5,13.84 L75.5,62.16 C75.5,69.527 69.527,75.5 62.16,75.5 L13.84,75.5 C6.473,75.5 0.5,69.527 0.5,62.16 L0.5,13.84 Z"/>
    <path fill="url(#moderation-c)" fill-rule="nonzero" stroke="#FFF" stroke-opacity=".01" stroke-width="1.68" d="M0.5,13.84 C0.5,6.473 6.473,0.5 13.84,0.5 L62.16,0.5 C69.527,0.5 75.5,6.473 75.5,13.84 L75.5,62.16 C75.5,69.527 69.527,75.5 62.16,75.5 L13.84,75.5 C6.473,75.5 0.5,69.527 0.5,62.16 L0.5,13.84 Z" filter="url(#moderation-d)"/>
    <path fill="url(#moderation-c)" fill-rule="nonzero" stroke="#FFF" stroke-opacity=".01" stroke-width="1.68" d="M0.5,13.84 C0.5,6.473 6.473,0.5 13.84,0.5 L62.16,0.5 C69.527,0.5 75.5,6.473 75.5,13.84 L75.5,62.16 C75.5,69.527 69.527,75.5 62.16,75.5 L13.84,75.5 C6.473,75.5 0.5,69.527 0.5,62.16 L0.5,13.84 Z"/>
    <path fill="url(#moderation-e)" fill-rule="nonzero" d="M14.9,34.7142857 C18.5454687,34.7142857 21.5,31.7725446 21.5,28.1428571 C21.5,24.5131696 18.5454687,21.5714286 14.9,21.5714286 C11.2545312,21.5714286 8.3,24.5131696 8.3,28.1428571 C8.3,31.7725446 11.2545312,34.7142857 14.9,34.7142857 Z M38,38 C43.4676875,38 47.9,33.586875 47.9,28.1428571 L47.9,26.5 L28.1,26.5 L28.1,28.1428571 C28.1,33.586875 32.5323125,38 38,38 Z M64.4,38 L57.8,38 C55.9860312,38 54.3453125,38.7300446 53.1521562,39.9087946 C57.305,42.1738839 60.2533437,46.2779464 60.8999375,51.1428571 L67.7,51.1428571 C69.5222187,51.1428571 71,49.6714732 71,47.8571429 L71,44.5714286 C71,40.9417411 68.0454687,38 64.4,38 Z M22.8478437,39.9087946 C21.6546875,38.7300446 20.0139687,38 18.2,38 L11.6,38 C7.95453125,38 5,40.9417411 5,44.5714286 L5,47.8571429 C5,49.6714732 6.47778125,51.1428571 8.3,51.1428571 L15.1000625,51.1428571 C15.7466562,46.2779464 18.6939687,42.1749107 22.8478437,39.9087946 L22.8478437,39.9087946 Z M61.1,34.7142857 C64.7454687,34.7142857 67.7,31.7725446 67.7,28.1428571 C67.7,24.5131696 64.7454687,21.5714286 61.1,21.5714286 C57.4545312,21.5714286 54.5,24.5131696 54.5,28.1428571 C54.5,31.7725446 57.4545312,34.7142857 61.1,34.7142857 Z M45.92,41.2857143 L45.0630312,41.2857143 C42.9139062,42.3083929 40.536875,42.9285714 38,42.9285714 C35.463125,42.9285714 33.087125,42.3083929 30.9369687,41.2857143 L30.08,41.2857143 C23.5191875,41.2857143 18.2,46.581875 18.2,53.1142857 L18.2,56.0714286 C18.2,58.7934375 20.4161562,61 23.15,61 L52.85,61 C55.5838437,61 57.8,58.7934375 57.8,56.0714286 L57.8,53.1142857 C57.8,46.581875 52.4808125,41.2857143 45.92,41.2857143 Z M47.9,15 L42.95,17.4642857 L38,15 L33.05,17.4642857 L28.1,15 L28.1,23.2142857 L47.9,23.2142857 L47.9,15 Z"/>
  </g>
</svg>
